gama.ui.shared/icons_svg/light/generic/menu.details.svg

<svg height="25" viewBox="-746.036 -3655.327 25 25" width="25" xmlns="http://www.w3.org/2000/svg"><g fill="none"><path d="m-741.6958-3654.827h16.32c2.1208 0 3.84 1.719 3.84 3.84v16.32c0 2.1207-1.7192 3.84-3.84 3.84h-16.32c-2.1208 0-3.84-1.7193-3.84-3.84v-16.32c0-2.121 1.7192-3.84 3.84-3.84z" fill="#fff"/><path d="m-741.6958-3654.827h16.32c2.1208 0 3.84 1.719 3.84 3.84v16.32c0 2.1207-1.7192 3.84-3.84 3.84h-16.32c-2.1208 0-3.84-1.7193-3.84-3.84v-16.32c0-2.121 1.7192-3.84 3.84-3.84z" stroke="#000" stroke-linecap="round" stroke-linejoin="round" stroke-width=".25"/><g fill="#518737"><path d="m-741.5358-3648.209c0-1.162.9432-2.1053 2.1053-2.1053h11.78945c1.1621 0 2.10525.9433 2.10525 2.1053v11.7895c0 1.1621-.94315 2.1052-2.10525 2.1052h-11.78945c-1.1621 0-2.1053-.9431-2.1053-2.1052zm.8421 0v11.7895c0 .6989.5642 1.2631 1.2632 1.2631h11.78945c.69895 0 1.26315-.5642 1.26315-1.2631v-11.7895c0-.699-.5642-1.263-1.26315-1.263h-11.78945c-.699 0-1.2632.564-1.2632 1.263z"/><path d="m-732.7021-3638.946h1.26315c.23579 0 .42105.1854.42105.421 0 .236-.18526.4213-.42105.4213h-3.36845c-.23576 0-.421-.1853-.421-.4213 0-.2356.18524-.421.421-.421h1.2632v-4.2104h-1.2632c-.23576 0-.421-.1852-.421-.421 0-.2356.18524-.4211.421-.4211h1.68424c.23576 0 .42106.1855.42106.4211z"/><path d="m-733.8863-3646.525h.6842c.2761 0 .5.224.5.5v.6844c0 .2762-.2239.5-.5.5h-.6842c-.27616 0-.5-.2238-.5-.5v-.6844c0-.276.22384-.5.5-.5z"/></g></g></svg>

<?xml version="1.0" encoding="UTF-8" standalone="no"?>
<!DOCTYPE svg PUBLIC "-//W3C//DTD SVG 1.1//EN" "http://www.w3.org/Graphics/SVG/1.1/DTD/svg11.dtd">
<svg version="1.1" xmlns="http://www.w3.org/2000/svg" xmlns:xl="http://www.w3.org/1999/xlink" xmlns:dc="http://purl.org/dc/elements/1.1/" viewBox="-746.0358 -3655.327 25 25" width="25" height="25">
  <defs/>
  <g id="SOURCES" stroke-dasharray="none" fill="none" stroke="none" fill-opacity="1" stroke-opacity="1">
    <title>SOURCES</title>
    <g id="SOURCES_Calque_2">
      <title>Calque 2</title>
      <g id="Graphic_9243">
        <path d="M -741.6958 -3654.827 L -725.3758 -3654.827 C -723.255 -3654.827 -721.5358 -3653.108 -721.5358 -3650.987 L -721.5358 -3634.667 C -721.5358 -3632.5463 -723.255 -3630.827 -725.3758 -3630.827 L -741.6958 -3630.827 C -743.8166 -3630.827 -745.5358 -3632.5463 -745.5358 -3634.667 L -745.5358 -3650.987 C -745.5358 -3653.108 -743.8166 -3654.827 -741.6958 -3654.827 Z" fill="white"/>
        <path d="M -741.6958 -3654.827 L -725.3758 -3654.827 C -723.255 -3654.827 -721.5358 -3653.108 -721.5358 -3650.987 L -721.5358 -3634.667 C -721.5358 -3632.5463 -723.255 -3630.827 -725.3758 -3630.827 L -741.6958 -3630.827 C -743.8166 -3630.827 -745.5358 -3632.5463 -745.5358 -3634.667 L -745.5358 -3650.987 C -745.5358 -3653.108 -743.8166 -3654.827 -741.6958 -3654.827 Z" stroke="black" stroke-linecap="round" stroke-linejoin="round" stroke-width=".25"/>
      </g>
      <g id="Group_9299">
        <g id="Group_9294">
          <title>plus-square</title>
          <g id="Graphic_9295">
            <path d="M -741.5358 -3648.209 C -741.5358 -3649.371 -740.5926 -3650.3143 -739.4305 -3650.3143 L -727.64105 -3650.3143 C -726.47895 -3650.3143 -725.5358 -3649.371 -725.5358 -3648.209 L -725.5358 -3636.4195 C -725.5358 -3635.2574 -726.47895 -3634.3143 -727.64105 -3634.3143 L -739.4305 -3634.3143 C -740.5926 -3634.3143 -741.5358 -3635.2574 -741.5358 -3636.4195 Z M -740.6937 -3648.209 L -740.6937 -3636.4195 C -740.6937 -3635.7206 -740.1295 -3635.1564 -739.4305 -3635.1564 L -727.64105 -3635.1564 C -726.9421 -3635.1564 -726.3779 -3635.7206 -726.3779 -3636.4195 L -726.3779 -3648.209 C -726.3779 -3648.908 -726.9421 -3649.472 -727.64105 -3649.472 L -739.4305 -3649.472 C -740.1295 -3649.472 -740.6937 -3648.908 -740.6937 -3648.209 Z" fill="#518737"/>
          </g>
        </g>
        <g id="Graphic_9293">
          <path d="M -732.7021 -3638.946 L -731.43895 -3638.946 C -731.20316 -3638.946 -731.0179 -3638.7606 -731.0179 -3638.525 C -731.0179 -3638.289 -731.20316 -3638.1037 -731.43895 -3638.1037 L -734.8074 -3638.1037 C -735.04316 -3638.1037 -735.2284 -3638.289 -735.2284 -3638.525 C -735.2284 -3638.7606 -735.04316 -3638.946 -734.8074 -3638.946 L -733.5442 -3638.946 L -733.5442 -3643.1564 L -734.8074 -3643.1564 C -735.04316 -3643.1564 -735.2284 -3643.3416 -735.2284 -3643.5774 C -735.2284 -3643.813 -735.04316 -3643.9985 -734.8074 -3643.9985 L -733.12316 -3643.9985 C -732.8874 -3643.9985 -732.7021 -3643.813 -732.7021 -3643.5774 L -732.7021 -3638.946 Z" fill="#518737"/>
        </g>
        <g id="Graphic_9292">
          <path d="M -733.8863 -3646.525 L -733.2021 -3646.525 C -732.926 -3646.525 -732.7021 -3646.301 -732.7021 -3646.025 L -732.7021 -3645.3406 C -732.7021 -3645.0644 -732.926 -3644.8406 -733.2021 -3644.8406 L -733.8863 -3644.8406 C -734.16246 -3644.8406 -734.3863 -3645.0644 -734.3863 -3645.3406 L -734.3863 -3646.025 C -734.3863 -3646.301 -734.16246 -3646.525 -733.8863 -3646.525 Z" fill="#518737"/>
        </g>
      </g>
    </g>
  </g>
</svg>
